**kern	**kern	**kern
*staff3	*staff2	*staff1
*tb32	*tb32	*tb32
*clefF4	*clefF4	*clefG2
*k[f#c#g#]	*k[f#c#g#]	*k[f#c#g#]
*M2/4	*M2/4	*M2/4
*A:	*A:	*A:
8r	8r	8e'J
=65	=65	=65
2A 2c# 2e	2r	(16aLL
.	.	16cc#
.	.	16b
.	.	16ddJJ
.	.	16cc#LL
.	.	16ee
.	.	16dd
.	.	16ff#JJ)
=66	=66	=66
2G# 2B 2e	2r	(16ff#LL
.	.	16ee
.	.	16dd#
.	.	16eeJJ
.	.	16gg#LL
.	.	16ff#
.	.	16ee
.	.	16ddJJ)
=67	=67	=67
2A 2e	2r	(16cc#LL
.	.	16dd
.	.	16b
.	.	16ddJJ
.	.	16cc#LL
.	.	16ee
.	.	16dd
.	.	16ff#JJ)
=68	=68	=68
2G# 2B 2e	2r	(16ff#LL
.	.	16ee
.	.	16dd#
.	.	16eeJJ
.	.	16gg#LL
.	.	16ff#
.	.	16ee
.	.	16ddJJ)
=69	=69	=69
(8AL	2r	(16ddLL
.	.	16cc#
8eJ	.	16ee
.	.	16cc#JJ)
8EL	.	(16cc#LL
.	.	16b
8dJ	.	16dd
.	.	16bJJ)
=70	=70	=70
8F#L	4r	(16bLL
.	.	16a
8c#J)	.	16g#
.	.	16aJJ
4r	8r	16gg#LL
.	.	16aa
.	(8D	16gg#
.	.	16aaJJ)
=71	=71	=71
4E	8EL	(16b#LL
.	.	16cc#
.	8AJ	16ee
.	.	16cc#JJ)
4E	8G#L	(16cc#LL
.	.	16b
.	[8dJ	16dd
.	.	16bJJ)
=72	=72	=72
4F#	8dL]	(16bLL
.	.	16a
.	8c#J)	16g#
.	.	16aJJ
4r	8r	16gg#LL
.	.	16aa
.	(8D	16gg#
.	.	16aaJJ)
=73	=73	=73
4E	8EL	(16b#LL
.	.	16cc#
.	8AJ	16ee
.	.	16cc#JJ)
4E	8G#L	(16cc#LL
.	.	16b
.	8dJ	16dd
.	.	16bJJ)
=74	=74	=74
8A	8c#)	8a'L
8r	8r	8e'J
8A	8r	8r
==	==	==
*-	*-	*-
